X:2851
T:Polonäs
T:ur Kumlins notsamling (nr 139)
B:Kumlins notsamling, nr 139
B:http://www.smus.se/earkiv/fmk/browselarge.php?lang=sw&katalogid=Ma+4&bildnr=00033
O:Närke
R:Slängpolska
Z:Nils Liberg
M:3/4
L:1/16
K:D
d2d2 efge fgag | f2ed cded c2BA | d2d2 efge fgag | fedc d4 D4 ::
fafd fafd f2a2 | egec egec e2g2 | fafd fafd f2a2 | egec egec e2g2 |
d2d2 efge fgag | fedc d4 D4 :|
(:musicend:)
(:music:)
